X: 8
T: Miss McLeod's
R: reel
M: 4/4
L: 1/8
K: Amaj
|:G2 g2 edeg|B2 BA BcBA| G2 g2 edeg|A2 AG A cBA|G2 gf edeg|BcBA B2 d2|edef edef|gfed BcBA:||:GA Bc dBGA|B2 BA BcBA|GA Bc dBGB|A2 AG AcBA|GA Bc dBGA| B2 BA B2 d2|e2 ef edef|gfed BcBA:||:A2 a2 fefa|c2 cB cdcB| A2 a2 fefa|B2 BA B dcB|A2 ag fefa|cdcB c2 e2|fefg fefg|agfe cdcB:||:AB cd ecAB|c2 cB cdcB|AB cd ecAc|B2 BA BdcB|AB cd ecAB| c2 cB c2 e2|f2 fg fefg|agfe cdcB:|


Tune 75	Setting 12554

